!!!COM: Music21
!!!OTL: Montealegre
!!!OMV: pezas_rumbas_montealegre_montealegre-partitura.musicxml
**kern
*I"Bagpipes
*I'Bag
*clefG^2
*k[]
*M2/4
=1
!LO:TX:a:t=Andante
4.ee
8dd
=
8.ffL
[16eeJk
8eeL]
16ddL
16ccJJ
=
[2b
=
2b]
=
4.ff
8ee
=
8.ggL
[16ffJk
8ffL]
16eeL
16ffJJ
=
8.ddL
[16ccJk
4cc_
=
2cc]
=
4.ee
8dd
=
8.ffL
[16eeJk
8eeL]
16ddL
16ccJJ
!!linebreak:original
=
8.bL
[16ffJk
8ffL]
8eeJ
=
8.ggL
[16ffJk
8ffL]
16eeL
16ffJJ
=
8.ddL
[16ffJk
8ffL]
8eeJ
=
8.ggL
[16ffJk
8ffL]
16eeL
16ffJJ
=
8.ddL
[16ccJk
4cc_
=
2cc]
=||
*M2/4
!LO:TX:a:t=Andante
4.ee
8dd
=
8.ffL
[16eeJk
8eeL]
16ddL
16ccJJ
!!linebreak:original
=
[2b
=
2b]
=
4.ff
8ee
=
8.ggL
[16ffJk
8ffL]
16eeL
16ffJJ
=
8.ddL
[16ccJk
4cc_
=
2cc]
=
4.ee
8dd
=
8.ffL
[16eeJk
8eeL]
16ddL
16ccJJ
=
8.bL
[16ffJk
8ffL]
8eeJ
=
8.ggL
[16ffJk
8ffL]
16eeL
16ffJJ
!!linebreak:original
=
8.ddL
[16ffJk
8ffL]
8eeJ
=
8.ggL
[16ffJk
8ffL]
16eeL
16ffJJ
=
8.ddL
[16ccJk
4cc_
=
8ccL]
8eeJ
8ffL
8eeJ
=||
8.ggL
[16ffJk
8ffL]
8eeJ
=
8ddL
8eeJ
8ffL
8ddJ
=
8.eeL
[16eeJk
8eeL]
8ddJ
=
8ccL
8ddJ
8eeL
8ccJ
!!linebreak:original
=
8.ddL
[16ddJk
8ddL]
8ccJ
=
8bL
8ccJ
8ddL
8bJ
=
[2cc
=
8ccL]
8eeJ
8ffL
8eeJ
=||
8.ggL
[16ffJk
8ffL]
8eeJ
=
8ddL
8eeJ
8ffL
8ddJ
=
8.eeL
[16eeJk
8eeL]
8ddJ
=
8ccL
8ddJ
8eeL
8ccJ
=
8.ddL
[16ddJk
8ddL]
8ccJ
!!linebreak:original
=
8bL
8ccJ
8ddL
8bJ
=
[2cc
=
2cc_
=
4cc]
4ee
=||
4ff
4gg
=
8.eeL
[16ddJk
4dd_
=
2dd_
=
4dd]
4ff
=
4gg
4aa
=
8.ffL
[16eeJk
4ee_
=
2ee_
=
8eeL]
8eeJ
8ffL
8eeJ
!!linebreak:original
=
8.ggL
[16ffJk
8ffL]
8eeJ
=
8ddL
8eeJ
8ffL
8eeJ
=
8.ggL
[16ffJk
8ffL]
8eeJ
=
8ddL
8eeJ
8ffL
8eeJ
=
8.ddL
[16ccJk
4cc_
=
2cc_
=
8cc]
8r
4ee
=||
4ff
4gg
=
8.eeL
[16ddJk
4dd_
=
2dd_
=
4dd]
4ff
!!linebreak:original
=
4gg
4aa
=
8.ffL
[16eeJk
4ee_
=
2ee_
=
8eeL]
8eeJ
8ffL
8eeJ
=
8.ggL
[16ffJk
8ffL]
8eeJ
=
8ddL
8eeJ
8ffL
8eeJ
=
8.ggL
[16ffJk
8ffL]
8eeJ
=
8ddL
8eeJ
8ffL
8eeJ
=||
8.ddL
[16ccJk
4cc_
=
2cc]
==
*-
